ix/ticket-discount_twotone.svg

<svg viewBox="0 0 24 24" fill="none" xmlns="http://www.w3.org/2000/svg" height="1em" width="1em">
  <path d="M19.5 12.5C19.5 11.12 20.62 10 22 10V9C22 5 21 4 17 4H7C3 4 2 5 2 9V9.5C3.38 9.5 4.5 10.62 4.5 12C4.5 13.38 3.38 14.5 2 14.5V15C2 19 3 20 7 20H17C21 20 22 19 22 15C20.62 15 19.5 13.88 19.5 12.5Z" stroke="#292D32" stroke-width="1.5" stroke-linecap="round" stroke-linejoin="round"/>
  <path opacity="0.4" d="M9 14.75L15 8.75" stroke="#292D32" stroke-width="1.5" stroke-linecap="round" stroke-linejoin="round"/>
  <path opacity="0.4" d="M14.9945 14.75H15.0035" stroke="#292D32" stroke-width="2" stroke-linecap="round" stroke-linejoin="round"/>
  <path opacity="0.4" d="M8.99451 9.25H9.00349" stroke="#292D32" stroke-width="2" stroke-linecap="round" stroke-linejoin="round"/>
</svg>

<svg viewBox="0 0 24 24" fill="none" xmlns="http://www.w3.org/2000/svg" height="1em" width="1em">
  <path d="M19.5 12.5A2.5 2.5 0 0 1 22 10V9c0-4-1-5-5-5H7C3 4 2 5 2 9v.5a2.5 2.5 0 0 1 0 5v.5c0 4 1 5 5 5h10c4 0 5-1 5-5a2.5 2.5 0 0 1-2.5-2.5Z" stroke="#292D32" stroke-width="1.5" stroke-linecap="round" stroke-linejoin="round"/>
  <path opacity=".4" d="m9 14.75 6-6" stroke="#292D32" stroke-width="1.5" stroke-linecap="round" stroke-linejoin="round"/>
  <path opacity=".4" d="M14.995 14.75h.009m-6.009-5.5h.008" stroke="#292D32" stroke-width="2" stroke-linecap="round" stroke-linejoin="round"/>
</svg>
